X:1
T:Bald General Coote
M:4/4
L:1/8
K:F
 c2| f2 fg f2A-B| c2c-d c2 z c| g2 c2 a2g-f| e2 d2 c2| c2| def-g f2 c2|\
d-ef-g f2 z c| f2 ff f2A-B| c2c-A G2| c2| f2f-d c2 c2| f2f-d c3 c|\
 f2f-d c3 a|g-fe-d c3| c|d-e fg f2 cc|d-ef-g f3 c| f2 g2 f2 AB|c-d cA F2||\
